libs/icons/src/svg/funnel.svg

<svg width="16" height="16" viewBox="0 0 16 16" fill="none" xmlns="http://www.w3.org/2000/svg">
<g clip-path="url(#clip0_328_178)">
<path fill-rule="evenodd" clip-rule="evenodd" d="M0.699993 0.999998C0.799993 0.799998 0.999993 0.599998 1.29999 0.599998H14.6C14.8 0.599998 15.1 0.699998 15.2 0.999998C15.3 1.2 15.3 1.5 15.2 1.7L9.99999 9.5V14.6C9.99999 15 9.69999 15.3 9.29999 15.3H6.69999C6.29999 15.3 5.99999 15 5.99999 14.7V9.5L0.799993 1.7C0.599993 1.5 0.599993 1.2 0.699993 0.999998ZM2.59999 2L7.19999 9C7.29999 9.1 7.29999 9.2 7.29999 9.4V14H8.59999V9.3C8.59999 9.2 8.59999 9 8.69999 8.9L13.3 1.9H2.59999V2Z" fill="#202327"/>
</g>
<defs>
<clipPath id="clip0_328_178">
<rect width="16" height="16" fill="white"/>
</clipPath>
</defs>
</svg>

<svg xmlns="http://www.w3.org/2000/svg" viewBox="0 0 16 16" class="sageicon"><path fill-rule="evenodd" d="M.7 1c.1-.2.3-.4.6-.4h13.3c.2 0 .5.1.6.4.1.2.1.5 0 .7L10 9.5v5.1c0 .4-.3.7-.7.7H6.7c-.4 0-.7-.3-.7-.6V9.5L.8 1.7C.6 1.5.6 1.2.7 1Zm1.9 1 4.6 7c.1.1.1.2.1.4V14h1.3V9.3c0-.1 0-.3.1-.4l4.6-7H2.6V2Z"/></svg>
